!!!COM: Music21
!!!OTL: strathspey_Quiet-Man--The
!!!OMV: strathspey_Quiet-Man--The
**kern
*clefG2
*k[b-]
*d:
*M4/4
=1
8.dL
16fJk
8.eL
16dJk
4A
12AL
12B-
12BnJ
=
4c
8.eL
16dJk
8.cL
16eJk
16gKL
8.eJ
=
8.fL
16dJk
8.eL
16cJk
16dKL
8.ddJ
8.ddL
16b-Jk
=
12aL
12b-
12aJ
12gL
12f
12eJ
12fL
12e
12dJ
12eL
12d
12cJ
!!linebreak:original
=
8.dL
16fJk
8.eL
16dJk
4A
12AL
12B-
12BnJ
=
4c
8.eL
16dJk
8.cL
16eJk
16gKL
8.eJ
=
8.fL
16dJk
8.eL
16cJk
16dKL
8.ddJ
8.ddL
16b-Jk
=
12aL
12b-
12aJ
12gL
12f
12eJ
16fKL
8.dJ
4d
!!linebreak:original
=||
*M4/4
8.dL
16fJk
8.eL
16dJk
4A
12AL
12B-
12BnJ
=
4c
8.eL
16dJk
8.cL
16eJk
16gKL
8.eJ
=
8.fL
16dJk
8.eL
16cJk
16dKL
8.ddJ
8.ddL
16b-Jk
=
12aL
12b-
12aJ
12gL
12f
12eJ
12fL
12e
12dJ
12eL
12d
12cJ
!!linebreak:original
=
8.dL
16fJk
8.eL
16dJk
4A
12AL
12B-
12BnJ
=
4c
8.eL
16dJk
8.cL
16eJk
16gKL
8.eJ
=
8.fL
16dJk
8.eL
16cJk
16dKL
8.ddJ
8.ddL
16b-Jk
=
12aL
12b-
12aJ
12gL
12f
12eJ
16fKL
8.dJ
8.dL
16cc#XJk
!!linebreak:original
=||
4dd
8.ffL
16ddJk
8.ddL
16aaJk
16ffKL
8.ddJ
=
4cc
8.gL
16aJk
16eKL
8.cJ
8.cL
16ccnJk
=
4dd
8.ffL
16ddJk
12ddL
12ff
12aaJ
12ffL
12ee
12ddJ
=
12aaL
12bb-
12aaJ
12eeL
12ff
12ggJ
12ffL
12ee
12ddJ
12eeL
12dd
12cc#XJ
!!linebreak:original
=
4dd
8.ffL
16ddJk
8.ddL
16aaJk
8.ffL
16ddJk
=
4cc
8.gL
16ccJk
8.eL
16cJk
16cKL
8.eJ
=
12dL
12e
12fJ
12eL
12f
12gJ
12fL
12g
12aJ
12gL
12a
12b-J
=
12aL
12b-
12aJ
12gL
12f
12eJ
12fL
12e
12dJ
12eL
12d
12cJ
!!linebreak:original
=||
4dd
8.ffL
16ddJk
8.ddL
16aaJk
16ffKL
8.ddJ
=
4cc
8.gL
16aJk
16eKL
8.cJ
8.cL
16ccnJk
=
4dd
8.ffL
16ddJk
12ddL
12ff
12aaJ
12ffL
12ee
12ddJ
=
12aaL
12bb-
12aaJ
12eeL
12ff
12ggJ
12ffL
12ee
12ddJ
12eeL
12dd
12cc#XJ
!!linebreak:original
=
4dd
8.ffL
16ddJk
8.ddL
16aaJk
8.ffL
16ddJk
=
4cc
8.gL
16ccJk
8.eL
16cJk
16cKL
8.eJ
=
12dL
12e
12fJ
12eL
12f
12gJ
12fL
12g
12aJ
12gL
12a
12b-J
=
12aL
12b-
12aJ
12gL
12f
12eJ
16fKL
8.dJ
4d
=||
*-
